X:304
T:Balquidder Lasses
C:Trad, Sc.
M:C|
L:1/8
%% Q:1/2=116
K:Em 
BA \
|: G2FG EFGA | B2 B2 e4 | d2 A2 ABAF | DEFG  A2 BA |
| G2FG EFGA | B2 B2 e4 | d2 A2 BAGF | E4 Z4 :| 
B2 \
|| e2 ef e2 B2 | efgf e4 | d2de dAFA | DEFG A2 A2 |
| e2 ef e2 B2 | efgf e4 | d2A2 BAGF E4 Z4 |
| e2 ef e2 B2 | efgf e4 | d2de dAFA | DEFG A2BA |
| G2FG EFGA | B2 B2 e4 | d2 A2 BAGF | E4 Z4 ||
